assets/img/braze_icons/scale-01.svg

<svg fill="none" height="24" viewBox="0 0 24 24" width="24" xmlns="http://www.w3.org/2000/svg"><g fill="#801ed7"><path d="m5.86252 1.00005.13758.00005c.55228 0 1 .44771 1 1 0 .55228-.44772 1-1 1-.99436 0-1.29536.00859-1.51764.06814-.69019.18494-1.22928.72403-1.41421 1.41422-.05956.22228-.06815.52328-.06815 1.51764 0 .55228-.44772 1-1 1-.55229 0-1-.44772-1-1l-.00005-.13759c-.000433-.79538-.000753-1.38604.13634-1.89769.36987-1.38037 1.44806-2.45856 2.82843-2.82843.51165-.137093 1.10231-.136773 1.8977-.13634z"/><path d="m19.5177 3.06824c-.2222-.05955-.5233-.06814-1.5176-.06814-.5523 0-1-.44772-1-1 0-.55229.4477-1 1-1l.1376-.00005c.7954-.000433 1.386-.000753 1.8977.13634 1.3803.36987 2.4585 1.44806 2.8284 2.82843.1371.51165.1368 1.10231.1363 1.8977v.13758c0 .55228-.4477 1-1 1s-1-.44772-1-1c0-.99436-.0086-1.29536-.0682-1.51764-.1849-.69019-.724-1.22928-1.4142-1.41422z"/><path d="m9.0001 2.0001c0-.55229.44771-1 1-1h4c.5523 0 1 .44771 1 1 0 .55228-.4477 1-1 1h-4c-.55229 0-1-.44772-1-1z"/><path d="m2.0001 9.0001c.55228 0 1 .44771 1 1v1.5357c.06031-.0348.12164-.0681.18394-.0998.48533-.2473 1.00204-.3459 1.56414-.3918.54119-.0442 1.20554-.0442 2.01051-.0442h.48261c.80496 0 1.46933 0 2.01053.0442.56209.0459 1.07877.1445 1.56417.3918.7526.3835 1.3645.9954 1.748 1.748.2473.4854.3459 1.0021.3918 1.5642.0442.5412.0442 1.2055.0442 2.0105v.4826c0 .805 0 1.4693-.0442 2.0105-.0459.5621-.1445 1.0788-.3918 1.5642-.0317.0623-.0651.1237-.1.1841h1.5361c.5523 0 1 .4477 1 1s-.4477 1-1 1h-7.24133c-.80496 0-1.46931 0-2.0105-.0442-.5621-.0459-1.0788-.1445-1.56414-.3918-.28224-.1438-.54469-.3197-.78273-.5231-.18713-.16-.35916-.3369-.51387-.5285-.17332-.2148-.3249-.448-.45155-.6965-.2473-.4854-.34586-1.0021-.39179-1.5642-.044212-.5412-.044202-1.2055-.04419-2.0105v-.4826c-.000001-.1059-.000003-.2094.0001-.3105v-6.4481c0-.55229.44771-1 1-1z"/><path d="m22.0001 9.0001c.5523 0 1 .44771 1 1v4c0 .5523-.4477 1-1 1s-1-.4477-1-1v-4c0-.55229.4477-1 1-1z"/><path d="m22.0001 17.0001c.5523 0 1 .4477 1 1v.1376c.0005.7954.0008 1.386-.1363 1.8977-.3699 1.3803-1.4481 2.4585-2.8284 2.8284-.5117.1371-1.1023.1368-1.8977.1363h-.1376c-.5523 0-1-.4477-1-1s.4477-1 1-1c.9943 0 1.2954-.0086 1.5176-.0682.6902-.1849 1.2293-.724 1.4142-1.4142.0596-.2222.0682-.5233.0682-1.5176 0-.5523.4477-1 1-1z"/></g></svg>

<svg width="24" height="24" viewBox="0 0 24 24" fill="none" xmlns="http://www.w3.org/2000/svg">
<path d="M5.86252 1.00005L6.0001 1.0001C6.55238 1.0001 7.0001 1.44781 7.0001 2.0001C7.0001 2.55238 6.55238 3.0001 6.0001 3.0001C5.00574 3.0001 4.70474 3.00869 4.48246 3.06824C3.79227 3.25318 3.25318 3.79227 3.06825 4.48246C3.00869 4.70474 3.0001 5.00574 3.0001 6.0001C3.0001 6.55238 2.55238 7.0001 2.0001 7.0001C1.44781 7.0001 1.0001 6.55238 1.0001 6.0001L1.00005 5.86251C0.999617 5.06713 0.999297 4.47647 1.13639 3.96482C1.50626 2.58445 2.58445 1.50626 3.96482 1.13639C4.47647 0.999297 5.06713 0.999617 5.86252 1.00005Z" fill="#801ED7"/>
<path d="M19.5177 3.06824C19.2955 3.00869 18.9944 3.0001 18.0001 3.0001C17.4478 3.0001 17.0001 2.55238 17.0001 2.0001C17.0001 1.44781 17.4478 1.0001 18.0001 1.0001L18.1377 1.00005C18.9331 0.999617 19.5237 0.999297 20.0354 1.13639C21.4157 1.50626 22.4939 2.58445 22.8638 3.96482C23.0009 4.47647 23.0006 5.06713 23.0001 5.86252L23.0001 6.0001C23.0001 6.55238 22.5524 7.0001 22.0001 7.0001C21.4478 7.0001 21.0001 6.55238 21.0001 6.0001C21.0001 5.00574 20.9915 4.70474 20.9319 4.48246C20.747 3.79227 20.2079 3.25318 19.5177 3.06824Z" fill="#801ED7"/>
<path d="M9.0001 2.0001C9.0001 1.44781 9.44781 1.0001 10.0001 1.0001H14.0001C14.5524 1.0001 15.0001 1.44781 15.0001 2.0001C15.0001 2.55238 14.5524 3.0001 14.0001 3.0001H10.0001C9.44781 3.0001 9.0001 2.55238 9.0001 2.0001Z" fill="#801ED7"/>
<path d="M2.0001 9.0001C2.55238 9.0001 3.0001 9.44781 3.0001 10.0001V11.5358C3.06041 11.501 3.12174 11.4677 3.18404 11.436C3.66937 11.1887 4.18608 11.0901 4.74818 11.0442C5.28937 11 5.95372 11 6.75869 11H7.2413C8.04626 11 8.71063 11 9.25183 11.0442C9.81392 11.0901 10.3306 11.1887 10.816 11.436C11.5686 11.8195 12.1805 12.4314 12.564 13.184C12.8113 13.6694 12.9099 14.1861 12.9558 14.7482C13 15.2894 13 15.9537 13 16.7587V17.2413C13 18.0463 13 18.7106 12.9558 19.2518C12.9099 19.8139 12.8113 20.3306 12.564 20.816C12.5323 20.8783 12.4989 20.9397 12.464 21.0001H14.0001C14.5524 21.0001 15.0001 21.4478 15.0001 22.0001C15.0001 22.5524 14.5524 23.0001 14.0001 23.0001H6.75877C5.95381 23.0001 5.28946 23.0001 4.74827 22.9559C4.18617 22.91 3.66947 22.8114 3.18413 22.5641C2.90189 22.4203 2.63944 22.2444 2.4014 22.041C2.21427 21.881 2.04224 21.7041 1.88753 21.5125C1.71421 21.2977 1.56263 21.0645 1.43598 20.816C1.18868 20.3306 1.09012 19.8139 1.04419 19.2518C0.999978 18.7106 0.999988 18.0463 1 17.2413V16.7587C0.999999 16.6528 0.999997 16.5493 1.0001 16.4482L1.0001 10.0001C1.0001 9.44781 1.44781 9.0001 2.0001 9.0001Z" fill="#801ED7"/>
<path d="M22.0001 9.0001C22.5524 9.0001 23.0001 9.44781 23.0001 10.0001V14.0001C23.0001 14.5524 22.5524 15.0001 22.0001 15.0001C21.4478 15.0001 21.0001 14.5524 21.0001 14.0001V10.0001C21.0001 9.44781 21.4478 9.0001 22.0001 9.0001Z" fill="#801ED7"/>
<path d="M22.0001 17.0001C22.5524 17.0001 23.0001 17.4478 23.0001 18.0001L23.0001 18.1377C23.0006 18.9331 23.0009 19.5237 22.8638 20.0354C22.4939 21.4157 21.4157 22.4939 20.0354 22.8638C19.5237 23.0009 18.9331 23.0006 18.1377 23.0001L18.0001 23.0001C17.4478 23.0001 17.0001 22.5524 17.0001 22.0001C17.0001 21.4478 17.4478 21.0001 18.0001 21.0001C18.9944 21.0001 19.2955 20.9915 19.5177 20.9319C20.2079 20.747 20.747 20.2079 20.9319 19.5177C20.9915 19.2955 21.0001 18.9944 21.0001 18.0001C21.0001 17.4478 21.4478 17.0001 22.0001 17.0001Z" fill="#801ED7"/>
</svg>
